system-addon/data/content/assets/glyph-trending-16.svg

<?xml version="1.0" encoding="UTF-8"?>
<svg width="16px" height="16px" viewBox="0 0 16 16" version="1.1" xmlns="http://www.w3.org/2000/svg" xmlns:xlink="http://www.w3.org/1999/xlink">
    <g id="Symbols" stroke="none" stroke-width="1" fill="none" fill-rule="evenodd">
        <g id="Context-/-Pocket-Trending" fill="context-fill">
            <path d="M12.164765,5.74981818 C12.4404792,5.74981818 12.5976221,6.06981818 12.4233364,6.28509091 C10.7404792,8.37236364 4.26619353,15.6829091 4.15905067,15.744 C5.70047924,12.3301818 7.1276221,8.976 7.1276221,8.976 L4.3276221,8.976 C4.09905067,8.976 3.9376221,8.74472727 4.02333638,8.52654545 C4.70047924,6.77672727 6.86190781,1.32945455 7.30476495,0.216727273 C7.35333638,0.0916363636 7.46190781,0.0174545455 7.59476495,0.016 C8.32476495,0.0130909091 10.7904792,0.00290909091 12.5790507,0 C12.844765,0 12.9976221,0.305454545 12.8433364,0.525090909 L9.17190781,5.74981818 L12.164765,5.74981818 Z" id="Fill-1"></path>
        </g>
    </g>
</svg>

<svg width="16" height="16" viewBox="0 0 16 16" xmlns="http://www.w3.org/2000/svg"><path d="M12.165 5.75a.33.33 0 0 1 .258.535c-1.683 2.087-8.157 9.398-8.264 9.459a385.997 385.997 0 0 0 2.969-6.768h-2.8a.328.328 0 0 1-.305-.45C4.7 6.777 6.862 1.33 7.305.217a.305.305 0 0 1 .29-.2C8.325.013 10.79.003 12.579 0c.266 0 .419.305.264.525L9.172 5.75h2.993z" fill="context-fill" fill-rule="evenodd"/></svg>
